X:484
T:What Will I Think of
T: by Momus
M:6/8
L:1/8
K:F
C |: "F"c3 "Bb"B3 | "Dm"A3 "G"G2C | "F"c3 "Bb"B3 | "F"FGA "C"G2C | 
"F"c3 "Bb"B3 | "Dm"A3 "G"G2C | "F"A3 "Bb"B3 | "Dm"ABA "G"G2C :|
